assets/Repeat button/Flat/repeat_button_flat.svg

<svg width="32" height="32" viewBox="0 0 32 32" fill="none" xmlns="http://www.w3.org/2000/svg">
<path d="M2 6C2 3.79086 3.79086 2 6 2H26C28.2091 2 30 3.79086 30 6V26C30 28.2091 28.2091 30 26 30H6C3.79086 30 2 28.2091 2 26V6Z" fill="#00A6ED"/>
<path d="M25.8648 10.2181L22.4657 7.10997C22.2266 6.87088 21.8108 7.0476 21.8004 7.39063V8.65882C21.8004 8.85633 21.6445 9.02265 21.4366 9.02265H11.5717C8.50519 9.03304 6 11.5071 6 14.5632V17.7141C6 18.0364 6.36382 18.1923 6.60291 17.9844L8.84823 15.9262C8.921 15.8638 8.96258 15.7702 8.96258 15.6767V14.5736C8.96258 13.1287 10.1372 11.954 11.5821 11.954L21.447 11.9852C21.6445 11.9852 21.8108 12.1515 21.8108 12.349V13.6172C21.8108 13.9603 22.2162 14.1474 22.4657 13.9083L25.8648 10.7898C26.0416 10.6339 26.0416 10.374 25.8648 10.2181Z" fill="white"/>
<path d="M6.13515 21.7711L9.53432 24.8792C9.7734 25.1183 10.1892 24.9415 10.1996 24.5985V23.3303C10.1996 23.1328 10.3555 22.9665 10.5634 22.9665H20.4283C23.4948 22.9561 26 20.4821 26 17.426V14.3125C26 13.9902 25.6362 13.8343 25.3971 14.0422L23.1518 16.1004C23.079 16.1628 23.0374 16.2563 23.0374 16.3499V17.4156C23.0374 18.8605 21.8628 20.0351 20.4179 20.0351L10.553 20.0039C10.3555 20.0039 10.1892 19.8376 10.1892 19.6401V18.3719C10.1892 18.0289 9.7838 17.8418 9.53432 18.0808L6.13515 21.1993C5.95844 21.3553 5.95844 21.6151 6.13515 21.7711Z" fill="white"/>
</svg>

<svg xmlns="http://www.w3.org/2000/svg" width="32" height="32" fill="none"><path fill="#00A6ED" d="M2 6a4 4 0 0 1 4-4h20a4 4 0 0 1 4 4v20a4 4 0 0 1-4 4H6a4 4 0 0 1-4-4V6Z"/><path fill="#fff" d="m25.865 10.218-3.4-3.108c-.238-.24-.654-.062-.665.28V8.66a.362.362 0 0 1-.363.364h-9.865C8.505 9.033 6 11.507 6 14.563v3.151a.36.36 0 0 0 .603.27l2.245-2.058a.332.332 0 0 0 .115-.25v-1.102a2.622 2.622 0 0 1 2.62-2.62l9.864.031c.198 0 .364.167.364.364v1.268c0 .343.405.53.655.291l3.399-3.118a.374.374 0 0 0 0-.572ZM6.135 21.771l3.4 3.108c.238.24.654.063.665-.28V23.33c0-.197.155-.363.363-.363h9.865c3.067-.01 5.572-2.485 5.572-5.541v-3.113a.36.36 0 0 0-.603-.27L23.152 16.1a.332.332 0 0 0-.115.25v1.066a2.622 2.622 0 0 1-2.62 2.62l-9.864-.032a.368.368 0 0 1-.364-.364v-1.268c0-.343-.405-.53-.655-.291l-3.399 3.118a.375.375 0 0 0 0 .572Z"/></svg>
